**kern	**silbe	**kern	**silbe
*ICvox	*	*ICvox	*
*f:	*	*f:	*
*M4/4	*	*M4/4	*
*clefG2	*	*clefG2	*
r;	.	r;	.
=1	=1	=1	=1
1r	.	1r	.
=2	=2	=2	=2
1r	.	1r	.
=3	=3	=3	=3
1r	.	1r	.
=4	=4	=4	=4
1r	.	1r	.
=5	=5	=5	=5
1r	.	1r	.
=6	=6	=6	=6
1r	.	1r	.
=7	=7	=7	=7
1r	.	1r	.
=8	=8	=8	=8
1r	.	1r	.
=9	=9	=9	=9
4r	.	1r	.
8a-	Your	.	.
[8a-	love	.	.
8a-]	_	.	.
8a-	is	.	.
8a-	like	.	.
8a-	a	.	.
=10	=10	=10	=10
4f	ti-	1r	.
8e-	-dal	.	.
[8e-	wave	.	.
8e-]	_	.	.
4.f	_	.	.
=11	=11	=11	=11
8r	.	1r	.
8f	spin-	.	.
8f	-ning	.	.
[8a-	o-	.	.
8a-]	_	.	.
8b-	-ver	.	.
8b-	my	.	.
[8b-	head	.	.
=12	=12	=12	=12
8b-]	_	1r	.
8a-	_	.	.
2f	_	.	.
4r	.	.	.
=13	=13	=13	=13
8r	.	1r	.
8a-	Drow-	.	.
8a-	-in'	.	.
[8a-	me	.	.
8a-]	_	.	.
8a-	in	.	.
8a-	your	.	.
[8f	pro-	.	.
=14	=14	=14	=14
8f]	_	1r	.
4e-	-mis-	.	.
[8e-	-es	.	.
8e-]	_	.	.
4.f	_	.	.
=15	=15	=15	=15
8r	.	1r	.
8f	be-	.	.
8f	-tter	.	.
[8a-	left	.	.
8a-]	_	.	.
4b-	un-	.	.
[8b-	-said	.	.
=16	=16	=16	=16
8b-]	_	1r	.
8a-	_	.	.
2f	_	.	.
4r	.	.	.
=17	=17	=17	=17
8r	.	1r	.
8cc	You're	.	.
8cc	the	.	.
16cc	right	.	.
[16ee-	_	.	.
8ee-]	_	.	.
8cc	kind	.	.
8b-	of	.	.
[8b-	sin-	.	.
=18	=18	=18	=18
8b-]	_	1r	.
8a-	-ner	.	.
4r	.	.	.
8r	.	.	.
8f	to	.	.
8a-	re-	.	.
[8b-	-lease	.	.
=19	=19	=19	=19
8b-]	_	1r	.
4b-	my	.	.
[8b-	in-	.	.
8b-]	_	.	.
4a-	-ner	.	.
[8b-	fan-	.	.
=20	=20	=20	=20
8b-]	_	1r	.
4cc	-ta-	.	.
[8cc	-sy	.	.
2cc]	_	.	.
=21	=21	=21	=21
8r	.	1r	.
8cc	The	.	.
8cc	in-	.	.
[8ee-	-vin-	.	.
8ee-]	_	.	.
8cc	-ci-	.	.
8b-	-ble	.	.
[8b-	win-	.	.
=22	=22	=22	=22
8b-]	_	1r	.
4.a-	-ner	.	.
8r	.	.	.
8f	and	.	.
8a-	you	.	.
[8b-	know	.	.
=23	=23	=23	=23
8b-]	_	1r	.
4b-	that	.	.
[8b-	you	.	.
8b-]	_	.	.
8a-	were	.	.
8r	.	.	.
[8b-	born	.	.
=24	=24	=24	=24
8b-]	_	1r	.
4cc	to	.	.
[8cc	be	.	.
2cc_	_	.	.
=25	=25	=25	=25
2cc]	_	1r	.
4r	.	.	.
8e-	You're	.	.
[8f	a	.	.
=26	=26	=26	=26
8f]	_	4r	.
8r	.	.	.
4a-	heart-	4cc	heart-
8g	-break-	8b-	-break-
4.f	-er	4.a-	-er
=27	=27	=27	=27
4r	.	4r	.
4a-	Dream	4cc	Dream
8g	ma-	8b-	ma-
4.f	-ker	4.a-	-ker
=28	=28	=28	=28
4r	.	1r	.
4a-	Love	.	.
8g	ta-	.	.
8f	-ker	.	.
8f	Don't	.	.
8f	you	.	.
=29	=29	=29	=29
8e-	mess	1r	.
8f	a-	.	.
8f	-round	.	.
8f	with	.	.
4f	me	.	.
8e-	You're	.	.
[8f	a	.	.
=30	=30	=30	=30
8f]	_	4r	.
8r	.	.	.
4a-	heart-	4cc	heart-
8g	-break-	8b-	-break-
4.f	-er	4.a-	-er
=31	=31	=31	=31
4r	.	4r	.
4a-	Dream	4cc	Dream
8g	ma-	8b-	ma-
4.f	-ker	4.a-	-ker
=32	=32	=32	=32
4r	.	1r	.
4a-	Love	.	.
8g	ta-	.	.
8f	-ker	.	.
8f	Don't	.	.
8f	you	.	.
=33	=33	=33	=33
8dd-	mess	1r	.
8dd-	a-	.	.
[4dd-	-round	.	.
8dd-]	_	.	.
8cc	no!	.	.
8cc	no!	.	.
[8cc	no!	.	.
=34	=34	=34	=34
4cc]	_	1r	.
4r	.	.	.
2r	.	.	.
=35	=35	=35	=35
1r	.	1r	.
=36	=36	=36	=36
1r	.	1r	.
=37	=37	=37	=37
1r	.	1r	.
=38	=38	=38	=38
4r	.	1r	.
8a-	Your	.	.
[8a-	love	.	.
8a-]	_	.	.
8a-	has	.	.
8a-	set	.	.
8a-	my	.	.
=39	=39	=39	=39
4f	soul	1r	.
8e-	on	.	.
[8e-	fire	.	.
8e-]	_	.	.
4.f	_	.	.
=40	=40	=40	=40
8r	.	1r	.
8f	Burn-	.	.
8f	-in'	.	.
[8a-	out	.	.
8a-]	_	.	.
8b-	of	.	.
8b-	con-	.	.
[8b-	-trol	.	.
=41	=41	=41	=41
8b-]	_	1r	.
8a-	_	.	.
4f	_	.	.
2r	.	.	.
=42	=42	=42	=42
4r	.	1r	.
8a-	You	.	.
[8a-	taught	.	.
8a-]	_	.	.
8a-	me	.	.
8a-	the	.	.
[8f	ways	.	.
=43	=43	=43	=43
8f]	_	1r	.
8e-	of	.	.
8e-	de-	.	.
[8e-	-sire	.	.
8e-]	_	.	.
4.f	_	.	.
=44	=44	=44	=44
8r	.	1r	.
8f	Now	.	.
8f	it's	.	.
[8a-	ta-	.	.
8a-]	_	.	.
8b-	-kin'	.	.
8b-	it's	.	.
[8b-	toll	.	.
=45	=45	=45	=45
8b-]	_	1r	.
8a-	_	.	.
4f	_	.	.
2r	.	.	.
=46	=46	=46	=46
8r	.	1r	.
8cc	You're	.	.
8cc	the	.	.
4ee-	right	.	.
8cc	kind	.	.
8b-	of	.	.
[8b-	sin-	.	.
=47	=47	=47	=47
8b-]	_	1r	.
[4.a-	-ner	.	.
8a-]	_	.	.
8f	to	.	.
8a-	re-	.	.
[8b-	-lease	.	.
=48	=48	=48	=48
8b-]	_	1r	.
4b-	my	.	.
[8b-	in-	.	.
8b-]	_	.	.
4a-	-ner	.	.
[8b-	fan-	.	.
=49	=49	=49	=49
8b-]	_	1r	.
4cc	-ta-	.	.
[8cc	-sy	.	.
4.cc]	_	.	.
8r	.	.	.
=50	=50	=50	=50
8r	.	1r	.
8cc	The	.	.
8cc	in-	.	.
[8ee-	-vin-	.	.
8ee-]	_	.	.
16ee-	-ci-	.	.
16cc	_	.	.
8b-	-ble	.	.
[8b-	win-	.	.
=51	=51	=51	=51
8b-]	_	1r	.
4.a-	-ner	.	.
8r	.	.	.
8f	and	.	.
8a-	you	.	.
[8b-	know	.	.
=52	=52	=52	=52
8b-]	_	1r	.
4b-	that	.	.
[8b-	you	.	.
8b-]	_	.	.
8a-	were	.	.
8r	.	.	.
[8b-	born	.	.
=53	=53	=53	=53
8b-]	_	1r	.
4cc	to	.	.
[8cc	be	.	.
2cc_	_	.	.
=54	=54	=54	=54
2cc]	_	1r	.
4r	.	.	.
8e-	You're	.	.
[8f	a	.	.
=55	=55	=55	=55
8f]	_	4r	.
8r	.	.	.
4a-	heart-	4cc	heart-
8g	-break-	8b-	-break-
4.f	-er	4.a-	-er
=56	=56	=56	=56
4r	.	4r	.
4a-	Dream	4cc	Dream
8g	ma-	8b-	ma-
4.f	-ker	4.a-	-ker
=57	=57	=57	=57
4r	.	1r	.
4a-	Love	.	.
8g	ta-	.	.
8f	-ker	.	.
8f	Don't	.	.
8f	you	.	.
=58	=58	=58	=58
8e-	mess	1r	.
8f	a-	.	.
8f	-round	.	.
8f	with	.	.
4f	me	.	.
8e-	You're	.	.
[8f	a	.	.
=59	=59	=59	=59
8f]	_	4r	.
8r	.	.	.
4a-	heart-	4cc	heart-
8g	-break-	8b-	-break-
4.f	-er	4.a-	-er
=60	=60	=60	=60
4r	.	4r	.
4a-	Dream	4cc	Dream
8g	ma-	8b-	ma-
4.f	-ker	4.a-	-ker
=61	=61	=61	=61
4r	.	1r	.
4a-	Love	.	.
8g	ta-	.	.
8f	-ker	.	.
8f	Don't	.	.
8f	you	.	.
=62	=62	=62	=62
8dd-	mess	1r	.
8dd-	a-	.	.
[4dd-	-round	.	.
8dd-]	_	.	.
8cc	no!	.	.
8cc	no!	.	.
[8cc	no!	.	.
=63	=63	=63	=63
*E-:	*	*E-:	*
4cc]	_	1r	.
4r	.	.	.
2r	.	.	.
=64	=64	=64	=64
1r	.	1r	.
=65	=65	=65	=65
1r	.	1r	.
=66	=66	=66	=66
1r	.	1r	.
=67	=67	=67	=67
1r	.	1r	.
=68	=68	=68	=68
1r	.	1r	.
=69	=69	=69	=69
1r	.	1r	.
=70	=70	=70	=70
1r	.	1r	.
=71	=71	=71	=71
1r	.	1r	.
=72	=72	=72	=72
1r	.	1r	.
=73	=73	=73	=73
1r	.	1r	.
=74	=74	=74	=74
1r	.	1r	.
=75	=75	=75	=75
*f:	*	*f:	*
1r	.	1r	.
=76	=76	=76	=76
1r	.	1r	.
=77	=77	=77	=77
1r	.	1r	.
=78	=78	=78	=78
1r	.	1r	.
=79	=79	=79	=79
8r	.	8r	.
8cc	You're	8aa-	You're
8cc	the	8aa-	the
[8ee-	right	[8aa-	right
8ee-]	_	8aa-]	_
8cc	kind	8ee-	kind
8b-	of	8dd-	of
[8b-	sin-	[8dd-	sin-
=80	=80	=80	=80
8b-]	_	8dd-]	_
8a-	-ner	8cc	-ner
4r	.	4r	.
8r	.	2r	.
8f	to	.	.
8a-	re-	.	.
[8b-	-lease	.	.
=81	=81	=81	=81
8b-]	_	1r	.
4b-	my	.	.
[8b-	in-	.	.
8b-]	_	.	.
4a-	-ner	.	.
[8b-	fan-	.	.
=82	=82	=82	=82
8b-]	_	1r	.
4cc	-ta-	.	.
[8cc	-sy	.	.
4.cc]	_	.	.
8r	.	.	.
=83	=83	=83	=83
8r	.	8r	.
8cc	The	8aa-	The
8cc	in-	8aa-	in-
[8ee-	-vin-	[8aa-	-vin-
8ee-]	_	8aa-]	_
8cc	-ci-	8ee-	-ci-
8b-	-ble	8dd-	-ble
[8b-	win-	[8dd-	win-
=84	=84	=84	=84
8b-]	_	8dd-]	_
8a-	-ner	8cc	-ner
4r	.	4r	.
8r	.	2r	.
8f	and	.	.
8a-	you	.	.
[8b-	know	.	.
=85	=85	=85	=85
8b-]	_	1r	.
4b-	that	.	.
[8b-	you	.	.
8b-]	_	.	.
8a-	were	.	.
8r	.	.	.
[8b-	born	.	.
=86	=86	=86	=86
8b-]	_	1r	.
4cc	to	.	.
[8cc	be	.	.
2cc_	_	.	.
=87	=87	=87	=87
2cc]	_	1r	.
4r	.	.	.
8e-	You're	.	.
[8f	a	.	.
=88	=88	=88	=88
8f]	_	1r	.
8r	.	.	.
4a-	heart-	.	.
8g	-break-	.	.
4.f	-er	.	.
=89	=89	=89	=89
4r	.	1r	.
4a-	Dream	.	.
8g	ma-	.	.
4.f	-ker	.	.
=90	=90	=90	=90
4r	.	1r	.
4a-	Love	.	.
8g	ta-	.	.
8f	-ker	.	.
8f	Don't	.	.
8f	you	.	.
=91	=91	=91	=91
8e-	mess	1r	.
8f	a-	.	.
8f	-round	.	.
8f	with	.	.
4f	me	.	.
8e-	You're	.	.
[8f	a	.	.
=92	=92	=92	=92
8f]	_	1r	.
8r	.	.	.
4a-	heart-	.	.
8g	-break-	.	.
4.f	-er	.	.
=93	=93	=93	=93
4r	.	1r	.
4a-	Dream	.	.
8g	ma-	.	.
4.f	-ker	.	.
=94	=94	=94	=94
4r	.	1r	.
4a-	Love	.	.
8g	ta-	.	.
8f	-ker	.	.
8f	Don't	.	.
8f	you	.	.
=95	=95	=95	=95
8e-	mess	1r	.
8f	a-	.	.
8f	-round	.	.
8f	with	.	.
4f	me	.	.
8e-	You're	.	.
[8f	a	.	.
=96	=96	=96	=96
8f]	_	4r	.
8r	.	.	.
4a-	heart-	4cc	heart-
8g	-break-	8b-	-break-
4.f	-er	4.a-	-er
=97	=97	=97	=97
4r	.	4r	.
4a-	Dream	4cc	Dream
8g	ma-	8b-	ma-
4.f	-ker	4.a-	-ker
=98	=98	=98	=98
4r	.	1r	.
4a-	Love	.	.
8g	ta-	.	.
8f	-ker	.	.
8f	Don't	.	.
8f	you	.	.
=99	=99	=99	=99
8e-	mess	1r	.
8f	a-	.	.
8f	-round	.	.
8f	with	.	.
4f	me	.	.
8e-	You're	.	.
[8f	a	.	.
=100	=100	=100	=100
8f]	_	4r	.
8r	.	.	.
4a-	heart-	4cc	heart-
8g	-break-	8b-	-break-
4.f	-er	4.a-	-er
=101	=101	=101	=101
4r	.	4r	.
4a-	Dream	4cc	Dream
8g	ma-	8b-	ma-
4.f	-ker	4.a-	-ker
=102	=102	=102	=102
4r	.	1r	.
4a-	Love	.	.
8g	ta-	.	.
8f	-ker	.	.
8ff	Heart-	.	.
[8ee-	-break-	.	.
=103	=103	=103	=103
8ee-]	_	1r	.
4.ff	-er	.	.
2r	.	.	.
=104	=104	=104	=104
1r	.	1r	.
=105	=105	=105	=105
1r	.	1r	.
=106	=106	=106	=106
1r	.	1r	.
=107	=107	=107	=107
1r	.	1r	.
=108	=108	=108	=108
1r	.	1r	.
=109	=109	=109	=109
1r	.	1r	.
=110	=110	=110	=110
1r	.	1r	.
=111	=111	=111	=111
1r	.	1r	.
=112	=112	=112	=112
1r	.	1r	.
=113	=113	=113	=113
1r	.	1r	.
=114	=114	=114	=114
1r	.	1r	.
=115	=115	=115	=115
1r	.	1r	.
=116	=116	=116	=116
1r	.	1r	.
=117	=117	=117	=117
1r	.	1r	.
=118	=118	=118	=118
1r	.	1r	.
=119	=119	=119	=119
1r	.	1r	.
=120	=120	=120	=120
1r	.	1r	.
=121	=121	=121	=121
1r	.	1r	.
=122	=122	=122	=122
1r	.	1r	.
=123	=123	=123	=123
1r	.	1r	.
=124	=124	=124	=124
1r	.	1r	.
=125	=125	=125	=125
1r	.	1r	.
=126	=126	=126	=126
1r	.	1r	.
=127	=127	=127	=127
1r	.	1r	.
=128	=128	=128	=128
1r	.	1r	.
=129	=129	=129	=129
1r	.	1r	.
r;	.	r;	.
r;	.	r;	.
*-	*-	*-	*-
!!!ENC: Nathaniel Condit-Schultz
!!!MBID: ed77dce5-fe7e-4fa1-bb38-4768c9ba7a2b
